symbolic/24x24/actions/curve-connector.svg

<svg xmlns="http://www.w3.org/2000/svg" width="24" height="24"><defs><style id="current-color-scheme" type="text/css">.ColorScheme-Text{color:#323a41}</style></defs><path style="fill:currentColor" class="ColorScheme-Text" d="M8 6S5 6 5 9s3 3 3 3h6s2 0 2 2-2 2-2 2H8v1h6s3 0 3-3-3-3-3-3H8s-2 0-2-2 2-2 2-2h6V6z" transform="translate(1 1)"/><path style="fill:currentColor" class="ColorScheme-Text" d="M9 16.5A2.5 2.5 0 0 1 6.5 19 2.5 2.5 0 0 1 4 16.5 2.5 2.5 0 0 1 6.5 14 2.5 2.5 0 0 1 9 16.5zm9-10A2.5 2.5 0 0 1 15.5 9 2.5 2.5 0 0 1 13 6.5 2.5 2.5 0 0 1 15.5 4 2.5 2.5 0 0 1 18 6.5z" transform="translate(1 1)"/></svg>

<svg xmlns="http://www.w3.org/2000/svg" width="24" height="24">
 <defs>
  <style id="current-color-scheme" type="text/css">
   .ColorScheme-Text { color:#323a41; } .ColorScheme-Highlight { color:#4285f4; } .ColorScheme-NeutralText { color:#ff9800; } .ColorScheme-PositiveText { color:#4caf50; } .ColorScheme-NegativeText { color:#f44336; }
  </style>
 </defs>
 <g transform="translate(1,1)">
  <path style="fill:currentColor" class="ColorScheme-Text" d="M 8,6 C 8,6 5,6 5,9 5,12 8,12 8,12 H 14 C 14,12 16,12 16,14 16,16 14,16 14,16 H 8 V 17 H 14 C 14,17 17,17 17,14 17,11 14,11 14,11 H 8 C 8,11 6,11 6,9 6,7 8,7 8,7 H 14 V 6 Z"/>
  <path style="fill:currentColor" class="ColorScheme-Text" d="M 9,16.5 A 2.5,2.5 0 0 1 6.5,19 2.5,2.5 0 0 1 4,16.5 2.5,2.5 0 0 1 6.5,14 2.5,2.5 0 0 1 9,16.5 Z M 18,6.5 A 2.5,2.5 0 0 1 15.5,9 2.5,2.5 0 0 1 13,6.5 2.5,2.5 0 0 1 15.5,4 2.5,2.5 0 0 1 18,6.5 Z"/>
 </g>
</svg>
